X: 25677
T: Martin Wynne's
R: reel
M: 4/4
K: Dmajor
ADED ~D2BF|ABdf efdB|ADED DFAF|GFED GBdB|
ADED ~D3B|ABdd efdB|~A2dA BABF|ABde fdde||
f2dB ~A3d|fede faad|fedB ~A2FA|~G2EF GBdd|
fedB ~A3d|fede faab|afdd eadB|Adfd eadB||

